X:2751
T:Cat In The Hopper
M:6/8
L:1/8
C:Traditional
S:Bryan; Rounder 0215
K:GDor
DGA B2 c | AFF F2 A | G2 G g2 e | fdd d2 e | fag fed | dcA B2 c |
ded d2 c | dBG G2 :||: g | gdg gab | agf f2 a | gag gfe | fdd d2 e |
fag fed | dcA B2 c | ded d2 c | dBG G2 :|


